!!!COM:	L van Beethoven
!!!OTL:	String Quartet Op18 No4
**kern	**dynam
*I"Violin I	*
*clefG2	*
*k[b-e-a-]	*
*c:	*
*M4/4	*
!LO:TX:a:B:t=Allegro ma non tanto	!
4G	p
=1!|:	=1!|:
[2c	.
8cL	.
(qqd	.
qqc)	.
qqB	.
8c	.
8e-	.
8d)	.
=2	=2
(2d	sf
4c)	.
4c	.
=3	=3
[2f	.
8fL	.
(qqg	.
qqf)	.
qqe	.
8f	.
8a-	.
8g)	.
=4	=4
(2g	sf
4f)	.
4f	.
=5	=5
(8fL	.
8dd)	.
(2dd	.
4cc)	.
=6	=6
(8bL	.
8ff)	.
(2ff	.
4ee-)	.
=7	=7
(8ee-L	.
8dd)	.
(2cc	.
4b)	.
=8	=8
(4.cc	.
8dd	.
4ee-)	.
8r	.
8cc	.
=9	=9
(8bL	.
8aa-)	.
(2aa-	.
4gg)	.
=10	=10
(8ffL	.
8fff)	.
(2fff	.
4eee-)	.
=11	=11
!LO:TX:t=cresc.	!
(4eee-	<
[4ddd)	.
8dddL	.
(8ddd	.
8fff	.
8ddd)	.
=12	=12
(4ddd	.
2ccc	.
4bb)	.
=13	=13
4ccc	ff
4r	.
2r	.
=14	=14
2r	.
4r	.
4g 4ee- 4ccc	ff
=15	=15
1r	.
=16	=16
2r	.
4r	.
4g 4dd 4bb	ff
=17	=17
(8ggL	.
8ggg)	.
2ggg	.
[4fff	.
=18	=18
4fff	.
2eee-	.
[4ddd-	.
=19	=19
(8ddd-L	.
8ccc)	.
(8ccc	.
8bb-)	.
(8bb-L	.
8aa-)	.
8gg	.
8ff#	.
=20	=20
4gg	.
4r	.
8r	.
(8g	p
8gg	.
8ff)	.
=21	=21
8ffL	.
8ee-	.
8dd	.
8cc	.
8b-L	.
8a-	.
8g	.
8f#	.
=22	=22
(4a	.
4g)	.
8r	.
(8g	.
8gg	.
8ff)	.
=23	=23
(8ffL	.
8ee-)	.
8dd	.
8cc	.
8b-L	.
8a-	.
8g	.
8f#	.
=24	=24
(8a	.
8g)	.
16r	.
16dd	sf
16ee-	.
16f#	.
(8aL	.
8g)	.
16r	.
16dd	sf
16ee-	.
16f#	.
=25	=25
4g	ff
4G 4d 4b 4gg	.
2r	.
=26	=26
4.e-	f
8gg	p
(8aa-L	.
8ee-)	.
8r	.
8dd-	.
=27	=27
(8ccL	.
8ee-)	.
4r	.
2r	.
=28	=28
4r	.
8r	.
8dd-	.
(8ccL	.
8ee-)	.
8r	.
8dd-	.
=29	=29
(qqcc	.
qqdd-	.
qqee-	.
2dd-	.
4cc)	.
4r	.
=30	=30
4.c	f
8ee	p
8ffL	.
8cc	.
8r	.
8b-	.
=31	=31
(8a-L	.
8cc)	.
4r	.
2r	.
=32	=32
4r	.
8r	.
8b-	.
(8a-L	.
8aa-)	.
8r	.
8ff	.
=33	=33
(2ee-	.
4dd)	.
4r	.
=34	=34
1r	.
=35	=35
8r	.
8bb-	p
8bb-	.
8bb-	.
(8aaL	.
8bb-)	.
8gg	.
8ee-	.
=36	=36
4b-	.
4r	.
2r	.
=37	=37
8r	.
8bb-	.
8bb-	.
8bb-	.
(8aaL	.
8bb-	.
8ccc	.
8bb-)	.
=38	=38
4bb-	.
(4bb-	.
4ccc	.
4ddd	.
=39	=39
4eee-	.
4gg	.
4aa	.
4bb)	.
=40	=40
4ccc	.
(4ee-	.
4gg	.
4a)	.
=41	=41
!LO:TX:t=cresc.	!
(8ccL	.
8b-	.
8a	.
8b-	.
8aL	.
8b-	.
8cc	.
8b-)	.
=42	=42
(8b-L	p
8gg)	.
(2gg	.
4ff)	.
=43	=43
(qqee	.
qqff)	.
qqgg	.
2ff	.
4ee-)	.
4b-	.
=44	=44
(8b-L	.
8aa-)	.
(2aa-	.
4gg)	.
=45	=45
(qqff	.
qqgg)	.
qqaa-	.
2gg	.
4ff)	.
4r	.
=46	=46
!LO:TX:t=cresc.	!
(8b-L	<
8bb-)	.
2bb-	.
[4aa-	.
=47	=47
4aa-	.
2gg	.
[4ff	.
=48	=48
(8ffL	.
8ee-)	.
(8ee-	.
8dd)	.
(8ddL	.
8cc)	.
8b-	.
8a	.
=49	=49
(4cc	.
[4b-)	p
8b-L	.
(16a	.
16b-	.
16aLL	.
16b-	.
16ee-)	.
16dd	.
=50	=50
(4b	.
[4cc)	.
8ccL	.
(16b	.
16cc)	.
(16bLL	.
16cc	.
16ff	.
16ee-)	.
=51	=51
!LO:TX:t=cresc.	!
(16cc#LL	<
16dd)	.
(16cc#	.
16dd)	.
(16cc#LL	.
16dd	.
16gg	.
16ff)	.
(16ddLL	.
16ee-)	.
(16dd	.
16ee-)	.
(16ddLL	.
16ee-	.
16aa-	.
16gg)	.
=52	=52
(16eeLL	.
16ff	.
16gg	.
16ff	.
16aa-LL	f
16gg	p
16bb-	.
16aa-	.
16ggLL	.
16ff	.
16ee-	.
16dd	.
16ccLL	.
16b-	.
16a	.
16a-)	.
=53	=53
4g	.
4.b-	sf
8b-	.
8dd	.
8ee-	.
=54	=54
(8ffL	.
8dd)	.
2b-	.
(qqb-	.
8a-	.
16g	.
16a-)	.
=55	=55
4g	.
4.b-	sf
8b-	.
8dd	.
8ee-	.
=56	=56
(8ffL	.
8dd)	.
2b-	sf
(qqb-	.
8a-	.
16g	.
16a-)	.
=57	=57
4g	.
4.b-	sf
8b-	.
8dd	.
8ee-	.
=58	=58
(8ee-L	.
8cc)	.
4.cc	sf
8cc	.
8ee	.
8ff	.
=59	=59
!LO:TX:t=cresc.	!
(4ff	.
2ee-	.
4dd)	.
=60	=60
8ee-L	p
4bb-	sf
[8bb-	.
8bb-L	.
8bb-	.
8aa-	.
8gg	.
=61	=61
8ffL	.
4ccc	sf
[8ccc	.
8cccL	.
8ccc	.
8bb-	.
8aa-	.
=62	=62
8ggL	.
4ddd-	sf
[8ddd-	.
8ddd-L	.
8ddd-	.
8ccc	.
8bb	.
=63	=63
8cccL	.
8ccc	.
8ccc	.
8bb	sf
8cccL	.
8ccc	.
8ccc	.
8bb	sf
=64	=64
!LO:TX:t=cresc.	!
4ccc	<
2ccc	.
[4eee-	.
=65	=65
4eee-	.
2ggg-	.
(4A	.
=66	=66
16B-LL)	.
(16A	.
16c	.
16B-	.
16dLL	.
16c	.
16e-	.
16d	.
16fLL	.
16e	.
16g	.
16f	.
16aLL	.
16g	.
16b-	.
16a	.
=67	=67
16ccLL	.
16b-	.
16dd	.
16cc	.
16ee-LL	.
16dd	.
16ff	.
16ee	.
16ggLL	.
16ff	.
16aa-	.
16gg	.
16bb-LL	.
16aa	.
16ccc	.
16bb-)	.
=68	=68
8bb-L	.
4eee-	.
4ggg	.
8bbb-	.
8bbb-	.
8bbb-	[
=69	=69
2B-	f
qqat	.
qqb-T	.
2b-T	.
=70	=70
4e-	.
4r	.
4b-	pp
4g	.
=71	=71
4e-	.
4e	.
4f	.
4g	.
=72	=72
4a-	.
4r	.
4c-	.
4r	.
=73	=73
4B-	.
4r	.
4B- 4f 4dd	f
4B- 4f 4dd	.
=74	=74
4G 4e- 4ee-	.
4r	.
4b-	pp
4g	.
=75	=75
4e-	.
4e	.
4f	.
4g	.
=76	=76
4a-	.
4r	.
4c	.
4r	.
=77	=77
4B	.
4r	.
4G 4d 4b	f
4G 4d 4b	.
=78:|!|:	=78:|!|:
4c#	.
4r	.
4d 4a 4ff#	f
4d 4a 4ff#	.
=79	=79
*^	*
[2gg	4G 4d 4b-	f
*v	*v	*
.	p
8ggL	.
(qqaa	.
qqgg)	.
qqff#	.
8gg	.
8bb-	.
8aa)	.
=80	=80
(2aa	.
4gg)	.
4gg	.
=81	=81
[2ccc	.
8cccL	.
(qqddd	.
qqccc)	.
qqbb	.
8ccc	.
8eee-	.
8ddd)	.
=82	=82
(2ddd	.
4ccc)	.
4cc	.
=83	=83
(8ccL	.
8aa)	.
(2aa	.
4gg)	.
=84	=84
(8ff#L	.
8ccc)	.
(2ccc	.
4bb-)	.
=85	=85
(8bb-L	.
8aa)	.
(2gg	.
4ff#)	.
=86	=86
4.gg	.
8aa	.
4bb-	.
8r	.
8gg	.
=87	=87
!LO:TX:t=cresc.	!
(8ff#L	.
8eee-)	.
(2eee-	.
4ddd)	.
=88	=88
(4ccc	.
2fff#	.
4ggg)	.
=89	=89
2.A	.
4ee-	.
=90	=90
(4ee-	.
2dd	.
4f#)	.
=91	=91
4g	.
4r	.
2r	.
=92	=92
2.ddd	sf
(8.eee-L	.
16ddd)	.
=93	=93
4ddd	.
4r	.
2r	.
=94	=94
2.ddd	sf
(8.eee-L	.
16ddd)	.
=95	=95
4ddd	.
4r	.
2r	.
=96	=96
1r	.
=97	=97
8r	.
!LO:TX:t=cresc.	!
(8b	.
8dd	.
8cc)	.
8bL	.
(8dd	.
8ff	.
8ee-)	.
=98	=98
8ddL	.
(8bb	.
8ddd	.
8ccc)	.
8bbL	.
4bb	.
8bb	.
=99	=99
[2ccc	.
8cccL	.
(qqddd	.
qqccc)	.
qqbb	.
8ccc	.
8eee-	.
8ddd)	.
=100	=100
(2ddd	sf
4ccc)	.
4r	.
=101	=101
[2ddd	.
8dddL	.
(qqeee-	.
qqddd)	.
qqccc	.
8ddd	.
8fff	.
8eee-)	.
=102	=102
(2eee-	sf
2ddd)	.
=103	=103
8ddd-L	.
(8ee	.
8gg	.
8ff)	.
(4ff	.
[4ee)	.
=104	=104
8eeL	.
(8ee	.
8ddd-	.
8ccc)	.
(4ccc	.
[4bb-)	.
=105	=105
8bb-L	.
(8ggg	.
8eee	.
8fff	.
8gggL)	.
(8ddd-	.
8bb-	.
8ccc)	.
=106	=106
8ddd-L	.
(8bb-	.
8gg	.
8aa-	.
8bb-L)	.
(8dd-	.
8cc	.
8b-)	.
=107	=107
4a-	p
[4aa-	.
(8aa-L	.
8gg)	.
(8gg	.
8ff)	.
=108	=108
!LO:TX:t=cresc.	!
(8ffL	<
8ee-)	.
(8ee-	.
8dd-)	.
(8dd-L	.
8cc)	.
(8cc	.
8b)	.
=109	=109
4cc	[
4r	.
4g 4ee 4ccc	ff
4r	.
=110	=110
2r	.
4r	.
4a- 4ff 4ccc	.
=111	=111
4r	.
4g 4ee 4ccc	.
4r	.
4a- 4ff 4ccc	.
=112	=112
4r	.
4g 4ee 4ccc	.
2r	.
=113	=113
1r	.
=114	=114
8r	.
8ccc	p
8ccc	.
8ccc	.
(8bbL	.
8ccc)	.
8aa	.
8ff	.
=115	=115
4cc	.
4r	.
2r	.
=116	=116
8r	.
8ccc	.
8ccc	.
8ccc	.
(8bbL	.
8ccc	.
8ddd	.
8ccc)	.
=117	=117
(2ccc	.
4ddd	.
4eee	.
=118	=118
4fff	.
4aa	.
4bb	.
4ccc#)	.
=119	=119
4ddd	.
(4dd	.
4ff	.
4b)	.
=120	=120
!LO:TX:t=cresc.	!
(8ddL	.
8cc	.
8b	.
8cc	.
8bL	.
8cc	.
8dd-	.
8cc)	.
=121	=121
(8a-L	p
8aa-)	.
(2aa-	.
4gg)	.
=122	=122
4ff	.
4r	.
4r	.
4cc	.
=123	=123
(8cc	.
8bb-)	.
(2bb-	.
4aa-)	.
=124	=124
4gg	.
4r	.
4r	.
4cc	.
=125	=125
!LO:TX:t=cresc.	!
(8ccL	.
8ccc)	.
2ccc	.
[4bb-	.
=126	=126
4bb-	.
2aa-	.
[4gg-	.
=127	=127
4gg-	.
2ff	.
[4ee-	.
=128	=128
4ee-	.
2dd-	.
4cc	.
=129	=129
4b	pp
4r	.
4r	.
(8g	.
8gg)	.
=130	=130
(8bL	.
8gg)	.
(8dd	.
8gg)	.
(8ff#L	.
8gg)	.
(8ff	.
8gg)	.
=131	=131
(8ee-L	.
8gg)	.
4r	.
4r	.
(8g	.
8gg)	.
=132	=132
(8ccL	.
8gg)	.
(8ee-	.
8gg)	.
(8ff#L	.
8gg)	.
(8ee-	.
8gg)	.
=133	=133
(8ddL	.
8gg)	.
4r	.
4r	.
(8g	.
8gg)	.
=134	=134
!LO:TX:t=cresc.	!
(8a-L	<
8gg)	.
(8b	.
8gg)	.
(8ddL	.
8gg)	.
(8ee-	.
8gg)	.
=135	=135
(8ffL	.
8gg)	.
(8dd	.
8gg)	.
(8bL	.
8gg)	.
(8a-	.
8gg)	.
=136	=136
(8gL	.
8gg)	.
(8f	.
8ff)	.
(8e-L	.
8ee-)	.
(8d	.
8dd)	.
=137	=137
[2c	f
qqd	p
qqc	.
qqB	.
8cL	.
(8c	.
8f	.
8d)	.
=138	=138
(2d	sf
4c)	.
4c	.
=139	=139
[2f	.
8fL	.
(qqg	.
qqf)	.
qqe	.
8f	.
8a-	.
8g)	.
=140	=140
(2g	sf
4f)	.
4f	.
=141	=141
(8fL	.
8dd)	.
(2dd	.
4cc)	.
=142	=142
(8bL	.
8ff)	.
(2ff	.
4ee-)	.
=143	=143
(8ee-L	.
8dd)	.
(2cc	.
4b)	.
=144	=144
(4.cc	.
8dd	.
4ee-)	.
8r	.
8cc	.
=145	=145
(8bL	.
8aa-)	.
(2aa-	.
4gg)	.
=146	=146
(8ffL	.
8fff)	.
(2fff	.
4eee-)	.
=147	=147
!LO:TX:t=cresc.	!
(4eee-	<
[4ddd)	.
8dddL	.
(8ddd	.
8fff	.
8ddd)	.
=148	=148
(4ddd	.
2ccc	.
4bb)	.
=149	=149
4ccc	.
4r	.
2r	.
=150	=150
2r	.
4r	.
4g 4ee- 4ccc	f
=151	=151
2r	.
4r	.
4g 4dd 4bb	.
=152	=152
2r	.
4r	.
4g 4ee- 4ccc	.
=153	=153
2r	.
4r	.
4a- 4ee- 4ccc	.
=154	=154
2r	.
4r	.
4a- 4ff 4ddd-	.
=155	=155
2r	.
4r	.
4b- 4ff 4ddd	.
=156	=156
4r	[
4eee-	ff
4r	.
4ddd-	.
=157	=157
4r	.
4ccc	.
4r	.
4ccc	.
=158	=158
!LO:TX:t=decresc.	!
4g 4dd 4bb	.
2g	.
4g	.
=159	=159
(8gL	p
8ee)	.
2ee	.
4dd	.
=160	=160
(qqcc#	.
qqdd)	.
qqee)	.
2dd	.
4cc	.
4g	.
=161	=161
(8gL	.
8ff)	.
(2ff	.
4ee)	.
=162	=162
(qqdd	.
qqee)	.
qqff	.
2ee	.
4dd)	.
4g	.
=163	=163
(8gL	.
8gg)	.
2gg	.
[4ff	.
=164	=164
4ff	.
2ee	.
[4dd	.
=165	=165
8ddL	.
(8cc	.
8b)	.
8a-	.
8gL	.
8f#	.
8cc	.
8f#	.
=166	=166
!LO:TX:t=cresc.	!
8gL	.
(8gg	.
8ff#	.
8gg	.
8ff#L	.
8gg	.
8aa	.
8gg)	.
=167	=167
[1ggt	.
=168	=168
4gg	.
(qqff#	.
qqgg)	.
8bb	.
8gg	.
8cccL	.
8gg	.
8eee	.
8gg)	.
=169	=169
[1ggt	.
=170	=170
1gg	.
=171	=171
(qqff#	.
qqgg)	.
8ggL)	.
8ggg	.
2ggg	.
[4fff	.
=172	=172
4fff	.
2eee	.
[4ddd	.
=173	=173
(8dddL	.
8ccc)	.
8bb	.
8aa	.
(8aaL	.
8gg)	.
(8gg	.
8ff#)	.
=174	=174
[2gg	p
8ggL	.
(16ff#	.
16gg)	.
(16ff#LL	.
16gg	.
16ccc	.
16bb)	.
=175	=175
(4gg#	.
[4aa)	.
8aaL	.
(16gg#	.
16aa)	.
(16gg#LL	.
16aa	.
16ddd	.
16ccc)	.
=176	=176
!LO:TX:t=cresc.	!
(16aa#LL	<
16bb)	.
(16aa#	.
16bb)	.
(16aa#LL	.
16bb	.
16eee	.
16ddd)	.
(16bbLL	.
16ccc)	.
(16bb	.
16ccc)	.
(16bbLL	.
16ccc	.
16fff	.
16eee)	.
=177	=177
(16dddLL	.
16eee	.
16ddd	.
16ccc#	[
16dddLL	f
16eee	p
16fff	.
16eee	.
16fffLL	.
16ddd	.
16bb	.
16gg	.
16ffLL	.
16dd	.
16b	.
16f)	.
=178	=178
4e	.
4.g	sf
8g	.
8b	.
8cc	.
=179	=179
(8ddL	.
8b)	.
2g	.
(qqg	.
8f	.
16e	.
16f)	.
=180	=180
4e	p
4.g	sf
8g	.
8b	.
8cc	.
=181	=181
(8ddL	.
8b)	.
2g	.
(qqg	.
8f	.
16e	.
16f)	.
=182	=182
4e	.
4.g	sf
8g	.
8b	.
8cc	.
=183	=183
(8ccL	.
8a)	.
4.a	sf
8a	.
8cc#	.
8dd	.
=184	=184
!LO:TX:t=cresc.	!
(4dd	.
2cc	.
4b)	.
=185	=185
8ccL	p
4gg	sf
[8gg	.
8ggL	.
8gg	.
8ff	.
8ee	.
=186	=186
8ddL	.
4aa	sf
[8aa	.
8aaL	.
8aa	.
8gg	.
8ff	.
=187	=187
8eeL	.
4bb-	sf
[8bb-	.
8bb-L	.
8bb-	.
8aa	.
8gg#	.
=188	=188
8aaL	.
8aa	.
8aa	.
8gg#	sf
8aaL	.
8aa	.
8aa	.
8gg#	sf
=189	=189
!LO:TX:t=cresc.	!
4aa	.
2aa	.
[4ccc	.
=190	=190
4ccc	.
2eee-	.
(4f#	.
=191	=191
16gLL)	.
16G	.
16A	.
16G	.
16BLL	.
16A	.
16c	.
16B	.
16dLL	.
16c	.
16e	.
16d	.
16fLL	.
16e	.
16g	.
16f	.
=192	=192
16aLL	.
16g	.
16b	.
16a	.
16ccLL	.
16b	.
16dd	.
16cc	.
16eeLL	.
16dd	.
16ff	.
16ee	.
16ggLL	.
16ff#	.
16aa	.
16gg)	.
=193	=193
8ggL	.
4ccc	.
4eee	.
4ggg	.
8cccc	.
=194	=194
2G	f
(qqff#t	.
qqggt)	.
2ggt	.
=195	=195
4cc	.
4r	.
4g	pp
4e	.
=196	=196
4c	.
4c#	.
4d	.
4e	.
=197	=197
4f	.
4r	.
4A-	.
4r	.
=198	=198
4G	.
4r	.
4G 4d 4b-	f
4G 4d 4b-	.
=199	=199
4G 4e 4cc	.
4r	.
4g	pp
4e-	.
=200	=200
4c	.
4c#	.
4d	.
4e-	.
=201	=201
4f	.
4r	.
4G	.
4r	.
=202	=202
4A-	.
4r	.
4A- 4e- 4cc	f
4A- 4e- 4cc	.
=203	=203
2A- 2f [2dd-	ff
8dd-L	.
(qqee-	.
qqdd-)	.
qqcc)	.
8dd-	.
8ff	sf
8ee-	.
=204	=204
(2ee-	.
8ddL)	.
(8dd	.
8gg-	sf
8ff)	.
=205	=205
(8ffL	.
8ee-)	.
8aa-	sf
8gg-	.
(8gg-L	.
8ff)	.
8bb-	sf
8aa-	.
=206	=206
(8aa-L	.
8gg)	.
8ccc	sf
8bb-	.
(8bb-L	.
8aa-)	.
8ddd	sf
8ccc	.
=207	=207
(8cccL	.
8bb)	.
2ggg	.
(16fffLL	.
16eee-	.
16ddd	.
16ccc)	.
=208	=208
2aaa-	.
2b	.
=209	=209
4cc	.
8r	.
8bb	p
(8cccL	.
8gg)	.
8r	.
8ff	.
=210	=210
(8ee-L	.
8gg)	.
8r	.
8bb	.
(8cccL	.
8gg)	.
8r	.
8ff	.
=211	=211
!LO:TX:t=cresc.	!
(8ee-L	<
8gg)	.
(8ee	.
8gg)	.
(8ffL	.
8aa-)	.
(8gg	.
8bb-)	.
=212	=212
(8aa-L	.
8ccc)	.
(8dd	.
8ff)	.
(8ee-L	.
8gg)	.
(8b	.
8dd)	.
=213	=213
8ccL	f
8ccc	.
8ccc	.
8ccc	.
8cccL	.
8ccc	.
8ccc	.
8ccc	.
=214	=214
8cccL	.
(4aaa-	.
8fff)	.
(8eee-L	.
8ggg)	.
(8bb	.
8ddd)	.
=215	=215
[2ccc	ff
8cccL	.
(qqddd	.
qqccc)	.
qqbb)	.
8ccc	.
8eee-	sf
8ddd	.
=216	=216
8cccL	.
(8ccc	.
8eee-	sf
8ddd)	.
8cccL	.
(8ccc	.
8eee-	sf
8ddd)	.
=217	=217
4ccc	.
4r	.
8r	.
(8cc	.
8ee-	sf
8dd)	.
=218	=218
4cc	.
4r	.
2r	.
=219	=219
4G 4e- 4cc	ff
4r	.
4G 4e- 4cc	.
4r	.
=220	=220
2.G 2.e- 2.cc	.
=221!|:	=221!|:
*k[]	*
*C:	*
*M3/8	*
!LO:TX:a:B:t=Andante scherzoso quasi Allegretto	!
4.r	.
=222	=222
4.r	.
=223	=223
4.r	.
=224	=224
4.r	.
=225	=225
4.r	.
=226	=226
4.r	.
=227	=227
4.r	.
=228	=228
4.r	.
=229	=229
4.r	.
=230	=230
8ggL	pp
8gg	.
8gg	.
=231	=231
8cccL	.
8ccc	.
16cccLL	.
16bb	.
=232	=232
16aaLL	.
16gg	.
16ff	.
16ee	.
16dd	.
16cc	.
=233	=233
!LO:TX:t=cresc.	!
8bL	<
8dd	.
8gg	.
=234	=234
8eeL	.
8cc	.
8r	.
=235	=235
8cc#L	.
8ee	.
8aa	.
=236	=236
8ffL	.
8dd	.
8r	.
=237	=237
8eeL	.
8gg	.
8ccc	.
=238	=238
4ccc	sf
(16bb	.
16aa)	.
=239	=239
(16aaLL	.
16gg)	.
(16gg	.
16ff)	.
(16ff	.
16ee)	.
=240	=240
8ddL	p
(8.gg	sf
16ff)	.
=241	=241
8eeL	.
(8.gg	sf
16cc)	.
=242	=242
8bL	.
8b	.
(qqaT	.
qqbt)	.
8bt	.
=243	=243
8ccL	.
8cc	.
(qqbt	.
qqccT)	.
8ccT	.
=244	=244
8ddL	.
8.gg	.
16ff	.
=245	=245
8eeL	.
8.gg	.
16cc	.
=246	=246
8bL	.
8b	.
(qqaT	.
qqbt)	.
8bt	.
=247	=247
8ccL	.
8cc	.
(qqbt	.
qqccT)	.
8ccT	.
=248	=248
8ddL	.
16r	.
16g	.
16cc	.
16ee	.
=249	=249
8ddL	.
16r	.
16g	.
16cc	.
16ee	.
=250	=250
!LO:TX:t=cresc.	!
16ddLL	<
16g	.
16cc	.
16ee	.
16dd	.
16g	.
=251	=251
16ccLL	.
16ee	.
16dd	.
16g	.
16cc	.
16ee	.
=252	=252
8ddL	f
8d 8b 8gg	.
8r	.
=253	=253
4.r	.
=254	=254
4.r	.
=255	=255
4.r	.
=256	=256
8ccL	f
8cc	.
8cc	.
=257	=257
4aa	sf
(16ff#t	p
32ee	.
32ff#)	.
=258	=258
(8ggL	.
8cc	.
8b)	.
=259	=259
4aa	sf
(16ff#t	p
32ee	.
32ff#)	.
=260	=260
(8ggL	.
8cc	.
8b)	.
=261	=261
4aa	.
(16ff#t	.
32ee	.
32ff#)	.
=262	=262
8cccL	.
8r	.
8d	.
=263	=263
16bLL	pp
16a#	.
16b	.
16cc	.
16b	.
16a	.
=264	=264
8g#L	.
8g#	.
8g#	.
=265	=265
16aLL	.
16g#	.
16a	.
16b	.
16a	.
16g	.
=266	=266
8f#L	.
8f#	.
8f#	.
=267	=267
8gL	.
(8.gg	.
16ff#)	.
=268	=268
(8ff#L	.
8.ee)	.
16dd	.
=269	=269
(16ddLL	.
16cc#)	.
(16cc#	.
16cc)	.
(16cc	.
16b)	.
=270	=270
(16.ddLL	.
32b)	.
8a	.
8r	.
=271	=271
4.r	.
=272	=272
16eeLL	pp
16dd#	.
16ee	.
16ff	.
16ee	.
16dd	.
=273	=273
8ccL	.
8r	.
8r	.
=274	=274
16ddLL	.
16cc#	.
16dd	.
16ee	.
16dd	.
16cc	.
=275	=275
8bL	.
8r	.
8r	.
=276	=276
16ggLL	.
16ff#	.
16gg	.
16aa	.
16gg	.
16ff	.
=277	=277
16eeLL	.
16dd	.
16cc	.
16b	.
16a	.
16g	.
=278	=278
8f#L	.
4g	sf
=279	=279
8aL	.
4b	sf
=280	=280
(16.ddLL	.
32cc)	.
(8bL	.
8a)	.
=281	=281
!LO:TX:t=cresc.	!
16dddLL	<
16ccc#	.
16ddd	.
16eee	.
16ddd	.
16ccc	.
=282	=282
16bbLL	.
16aa#	.
16bb	.
16ccc	.
16bb	.
16aa	.
=283	=283
16ggLL	.
16ff#	.
16ee	.
16dd	.
16cc	.
16b	.
=284	=284
8aL	[
4b	sf
=285	=285
8ccL	.
4dd#	sf
=286	=286
(16.eeLL	.
32cc)	.
8bL	.
8aT	.
=287	=287
(qqg	.
qqa)	.
8gL	.
8r	.
8r	.
=288	=288
8ddL	p
8dd	.
8dd	.
=289	=289
4.dd	.
=290	=290
8ddL	.
8dd	.
8dd	.
=291	=291
16ddLL	.
16ddd	.
16ccc	.
16bb	.
16aa	.
16gg	.
=292	=292
16ff#LL	.
16ee	.
16dd	.
16cc	.
16b	.
16a	.
=293	=293
16gLL	.
16a	.
16b	.
16cc	.
16dd	.
16ee	.
=294	=294
16ff#LL	.
16gg	.
16aa	.
16bb	.
16ccc	.
16aa	.
=295	=295
4bb	.
8r	.
=296	=296
8dddL	.
8ddd	.
8ddd	.
=297	=297
8.dddL	.
16ddd	.
16fff#	.
16ddd	.
=298	=298
8gggL	.
16r	.
16ddd	.
16fff#	.
16ddd	.
=299	=299
!LO:TX:t=cresc.	!
16gggLL	.
16ddd	.
16fff#	.
16ddd	.
16ggg	.
16ddd	.
=300	=300
16fff#LL	.
16ddd	.
16ggg	.
16ddd	.
16fff#	.
16ddd	.
=301	=301
8gggL	.
8r	.
8gg	pp
=302	=302
8ggL	.
8r	.
8r	.
=303:|!	=303:|!
4.r	.
=304	=304
4.r	.
=305	=305
8ee-L	p
8ee-	.
8ee-	.
=306	=306
8aa-L	.
8aa-	.
(16aa-LL	sf
16gg)	.
=307	=307
8ffL	.
8ff	.
(16ffLL	sf
16gg)	.
=308	=308
8ffL	.
8ff	.
(16ffLL	sf
16gg)	.
=309	=309
8ffL	.
8r	.
8r	.
=310	=310
8r	.
8r	.
(16f	pp
16g-)	.
=311	=311
8fL	.
8f	.
(16fLL	.
16g-)	.
=312	=312
8fL	.
8f	.
(16fLL	.
16g-)	.
=313	=313
8fL	.
8r	.
8r	.
=314	=314
4.r	.
=315	=315
4.r	.
=316	=316
8b-L	f
8b-	.
8b-	.
=317	=317
16ee-LL	.
16bb-	.
16aa-	.
16gg	.
16ff	.
16ee-	.
=318	=318
16ddLL	.
16cc	.
16b	.
16a-	.
16g	.
16f	.
=319	=319
8e-L	.
8c	.
8r	.
=320	=320
4.r	.
=321	=321
4.r	.
=322	=322
8ee-L	p
8ee-	.
8ee-	.
=323	=323
16ee-LL	.
16eee-	.
16ddd-	sf
16ccc	.
16bb-	.
16aa-	.
=324	=324
16ggLL	.
16ff	.
16ee-	sf
16dd-	.
16cc	.
16b-	.
=325	=325
16a-LL	.
16b-	.
16cc	sf
16dd-	.
16ee-	.
16ff	.
=326	=326
16ggLL	.
16aa-	.
16bb-	sf
16ccc	.
16ddd-	.
16bb-	.
=327	=327
!LO:TX:t=decresc.	!
16ggLL	.
16aa	.
16bb-	.
16ccc	.
16ddd-	.
16bb-	.
=328	=328
16ffLL	.
16aa	.
16bb-	.
16ccc	.
16ddd-	.
16bb-	.
=329	=329
16eeLL	.
16aa	.
16bb-	.
16ccc	.
16ddd-	.
16bb-	.
=330	=330
16ddd-LL	.
16bb-	.
16ddd-	.
16bb-	.
16ddd-	.
16bb-	.
=331	=331
8ddd-L	.
8bb-	.
8gg	.
=332	=332
8eeL	.
8cc#	.
8b-	.
=333	=333
8gL	.
8e	.
8c#	.
=334	=334
(8gL	pp
8g	.
8g)	.
=335	=335
(8gL	.
8g	.
8g)	.
=336	=336
8fL	.
8f	.
8f	.
=337	=337
8fL	.
8f	.
8f	.
=338	=338
8eL	.
8e	.
8e	.
=339	=339
8eL	.
8e	.
8e	.
=340	=340
8aL	.
8a	.
8a	.
=341	=341
8g#L	.
8r	.
8r	.
=342	=342
8r	.
8dd#	.
8dd#	.
=343	=343
8eeL	.
8r	.
8r	.
=344	=344
8r	.
8ff	.
8ff	.
=345	=345
8eeL	.
8r	.
8r	.
=346	=346
8r	.
8dd#	sf
8dd#	.
=347	=347
8eeL	.
8r	.
8r	.
=348	=348
8r	.
8ff	sf
8ff	.
=349	=349
8eeL	.
4ff	sf
=350	=350
8eeL	.
4ff	sf
=351	=351
8eeL	.
8r	.
8r	.
=352	=352
4.r	.
=353	=353
4.r	.
=354	=354
8r	.
(8e	pp
8e)	.
=355	=355
[4.e	.
=356	=356
[4.e	.
=357	=357
[4.e	.
=358	=358
8eL	.
(8f	.
8f)	.
=359	=359
[4.f	.
=360	=360
[4.f	.
=361	=361
[4.f	.
=362	=362
8fL	.
(8f	pp
8f)	.
=363	=363
(8fL	.
8f	.
8f)	.
=364	=364
(8fL	.
8f	.
8f)	.
=365	=365
(8fL	.
8f	.
8f)	.
=366	=366
(8fL	.
8f	.
8f)	.
=367	=367
4e	.
8r	.
=368	=368
4.r	.
=369	=369
4.r	.
=370	=370
4.r	.
=371	=371
8r	.
8r	.
16ff#	p
16ff#	.
=372	=372
16ggLL	.
16dd	.
16b	.
16g	.
16a	.
16b	.
=373	=373
16ccLL	.
16b	.
16cc	.
16dd	.
[8ee	sf
=374	=374
16eeLL	.
16a	.
16dd	.
16cc	.
16b	.
16a	.
=375	=375
16gLL	.
16dd	.
16gg	.
16ff	.
16ee	.
16dd	.
=376	=376
8eeL	.
16.gg	.
32gg	.
16.gg	.
32gg	.
=377	=377
8ccL	.
[4ff	sf
=378	=378
8ffL	.
8B	.
(qqAT	.
qqBt)	.
8Bt	.
=379	=379
8cL	.
8dd	.
8dd	.
=380	=380
8ggL	.
8gg	.
16ggLL	.
16ff	.
=381	=381
16eeLL	.
16dd	.
16cc	.
16b	.
16a	.
16g	.
=382	=382
8f#L	.
8a	.
[8dd	.
=383	=383
16ddLL	.
16cc	.
16b	.
16a	.
16g	.
16f	.
=384	=384
8eL	.
8g	.
[8cc	sf
=385	=385
16ccLL	.
16b	.
16a	.
16g	.
16f	.
16e	.
=386	=386
!LO:TX:t=cresc.	!
16dLL	.
16gg	.
16ff	.
16ee	.
16dd	.
16cc#	.
=387	=387
16aaLL	.
16gg	.
16ff	.
16ee	.
16dd	.
16cc	.
=388	=388
8bL	p
(8.gg	sf
16ff)	.
=389	=389
8eeL	.
(8.gg	sf
16cc)	.
=390	=390
8bL	.
8b	.
(qqaT	.
qqbt)	.
8bt	.
=391	=391
8ccL	.
8cc	.
8ccT	.
=392	=392
qqb	.
qqcc	.
8ddL	.
(8.gg	sf
16ff)	.
=393	=393
8eeL	.
(8.gg	sf
16cc)	.
=394	=394
8bL	.
8b	.
(qqaT	.
qqbt)	.
8bt	.
=395	=395
8ccL	.
8cc	.
8cc	.
=396	=396
(qqb	.
qqcc)	.
8ddL	.
16r	.
16gg	.
16gg	.
16ccc	.
=397	=397
8bbL	.
16r	.
16gg	.
16gg	.
16ccc	.
=398	=398
!LO:TX:t=cresc.	!
16bbLL	<
16gg	.
16gg	.
16ccc	.
16bb	.
16gg	.
=399	=399
16ggLL	.
16ccc	.
16bb	.
16gg	.
16gg	.
16ccc	[
=400	=400
8bbL	f
8G 8g	.
8r	.
=401	=401
4.r	.
=402	=402
4.r	.
=403	=403
4.r	.
=404	=404
8ffL	f
8ff	.
8ff	.
=405	=405
4ddd	sf
(16bbt	p
32aa	.
32bb)	.
=406	=406
8cccL	.
8ff	.
8ee	.
=407	=407
4ddd	sf
(16bbt	p
32aa	.
32bb)	.
=408	=408
8cccL	.
8ff	.
8ee	.
=409	=409
4ddd	.
(16bbt	.
32aa	.
32bb)	.
=410	=410
8fffL	.
8r	.
8g	pp
=411	=411
16eeLL	.
16dd#	.
16ee	.
16ff	.
16ee	.
16dd	.
=412	=412
8cc#L	.
8cc#	.
8cc#	.
=413	=413
16ddLL	.
16cc#	.
16dd	.
16ee	.
16dd	.
16cc	.
=414	=414
8bL	.
8b	.
8b	.
=415	=415
8ccL	.
(8.ccc	.
16bb)	.
=416	=416
(8bbL	.
8.aa	.
16gg)	.
=417	=417
(16ggLL	.
16ff#)	.
(16ff#	.
16ff)	.
(16ff	.
16ee)	.
=418	=418
(16.ggLL	.
32ee)	.
8dd	.
8r	.
=419	=419
4.r	.
=420	=420
16aaLL	pp
16gg#	.
16aa	.
16bb-	.
16aa	.
16gg	.
=421	=421
8ffL	.
8r	.
8r	.
=422	=422
16ggLL	.
16ff#	.
16gg	.
16aa	.
16gg	.
16ff	.
=423	=423
8eeL	.
8r	.
8r	.
=424	=424
16cccLL	.
16bb	.
16ccc	.
16ddd	.
16ccc	.
16bb-	.
=425	=425
16aaLL	.
16gg	.
16ff	.
16ee	.
16dd	.
16cc	.
=426	=426
8bL	.
4cc	sf
=427	=427
8ddL	.
4ee	sf
=428	=428
(16.ggLL	.
32ff)	.
(8eeL	.
8dd)	.
=429	=429
4.r	.
=430	=430
!LO:TX:t=cresc.	!
16eeeLL	<
16ddd#	.
16eee	.
16fff	.
16eee	.
16ddd	.
=431	=431
16cccLL	.
16bb	.
16aa	.
16gg	.
16ff	.
16ee	.
=432	=432
8ddL	[
4ee	sf
=433	=433
8ffL	.
4gg#	sf
=434	=434
(16.aaLL	.
32ff)	.
8eeL	.
(qqccT	.
qqddT)	.
8ddT	.
=435	=435
8ccL	p
8r	.
8r	.
=436	=436
8ggL	.
8gg	.
8gg	.
=437	=437
4.gg	.
=438	=438
8ggL	.
8gg	.
8gg	.
=439	=439
16ggLL	.
16ggg	.
16fff	.
16eee	.
16ddd	.
16ccc	.
=440	=440
16bbLL	.
16aa	.
16gg	.
16ff	.
16ee	.
16dd	.
=441	=441
16ccLL	.
16dd	.
16ee	.
16ff	.
16gg	.
16aa	.
=442	=442
16bbLL	.
16ccc	.
16ddd	.
16eee	.
16fff	.
16ddd	.
=443	=443
4eee	.
8r	.
=444	=444
8ggL	.
8gg	.
8gg	.
=445	=445
8eeeL	.
8r	.
8r	.
=446	=446
8eeL	.
8ee	.
8ee	.
=447	=447
!LO:TX:t=cresc.	!
16cccLL	<
16ccc	.
16bb-	.
16aa	.
16gg	.
16ff	.
=448	=448
16eeLL	.
16dd	.
16cc	.
16b-	.
16a	.
16g	.
=449	=449
8fL	ff
8f	.
8f	.
=450	=450
8f#L	.
8f#	.
8f#	.
=451	=451
4g	.
8r	.
=452	=452
8r	.
(16aa	sf
16ff#)	p
(16aa	.
16ff#)	.
=453	=453
4gg	.
8r	.
=454	=454
8r	.
(16aa	sf
16ff#)	p
(16aa	.
16ff#)	.
=455	=455
8ggL	.
8r	.
8r	.
=456	=456
4.r	.
=457	=457
(8ggL	pp
8gg	.
8gg)	.
=458	=458
(8bb-L	.
8bb-	.
8bb-)	.
=459	=459
!LO:TX:t=cresc.	!
8bb-L	.
8bb-	.
8bb-	.
=460	=460
8aaL	.
8aa	.
8aa	.
=461	=461
8bbL	.
8bb	.
8bb	.
=462	=462
8cccL	.
8ccc	.
8ccc	.
=463	=463
!LO:TX:t=decresc.	!
8aaL	.
8aa	.
8aa	.
=464	=464
8ggL	.
8gg	.
8gg	.
=465	=465
8ccL	p
8r	.
8r	.
=466	=466
8ggL	pp
8gg	.
8gg	.
=467	=467
8cccL	.
8ccc	.
16cccLL	.
16bb	.
=468	=468
16aaLL	.
16gg	.
16ff	.
16ee	.
16dd	.
16cc	.
=469	=469
8bL	.
8dd	.
8gg	.
=470	=470
8eeL	.
8cc	.
8r	.
=471	=471
16bLL	.
16b	.
16dd	.
16dd	.
16gg	.
16gg	.
=472	=472
8eeL	.
8cc	.
8r	.
=473	=473
16bLL	.
16b	.
16dd	.
16dd	.
16gg	.
16gg	.
=474	=474
8ccL	.
16r	.
16gg	.
16dd	.
16gg	.
=475	=475
8eeL	.
16r	.
16gg	.
16dd	.
16gg	.
=476	=476
8eeL	.
16r	.
16gg	.
16bb	.
16gg	.
=477	=477
8cccL	.
16r	.
16gg	.
16bb	.
16gg	.
=478	=478
!LO:TX:t=cresc.	!
16cccLL	.
16gg	.
16bb	.
16gg	.
16ccc	.
16gg	.
=479	=479
16bbLL	.
16gg	.
16ccc	.
16gg	.
16bb	.
16gg	.
=480	=480
8cccL	.
8r	.
8cc	p
=481	=481
8ccL	.
8r	.
8r	.
=482!|:	=482!|:
*k[b-e-a-]	*
*c:	*
*M3/4	*
!LO:TX:a:B:t=Allegretto	!
(8.GL	.
16c)	.
=483	=483
(2e-	.
4f)	sf
=484	=484
(2g	.
4a-)	sf
=485	=485
2b-	.
[4ee-	sf
=486	=486
(4ee-	.
4dd)	.
(8.fL	.
16a-)	.
=487	=487
(2cc	.
4ee)	sf
=488	=488
2ff	.
[4aa-	sf
=489	=489
4aa-	.
4gg	.
4b	.
=490	=490
4cc	.
4r	.
=:|!|:	=:|!|:
4r	.
=491	=491
2.r	.
=492	=492
2.r	.
=493	=493
2.r	.
=494	=494
2.ee	sf
=495	=495
(2ff	.
4gg)	sf
=496	=496
(2ff	.
4gg)	sf
=497	=497
(2ff	.
4gg)	sf
=498	=498
4ff	.
4r	.
(8.a-L	p
16dd-)	.
=499	=499
!LO:TX:t=cresc.	!
(2ff	<
4gg-	.
=500	=500
4gg	.
4aa-	.
4aa	.
=501	=501
4bb-	.
4bb	.
4ccc	.
=502	=502
4ddd-	.
8eee-L	.
8ddd-	.
8ccc	.
8bb-)	.
=503	=503
(2aa-	.
4gg-)	sf
=504	=504
(2ff	.
4gg-)	sf
=505	=505
(2ff	.
4gg-)	sf
=506	=506
[2.ff	.
=507	=507
2.ff	.
=508	=508
2.ee-T	.
=509	=509
(qqdd	.
qqee-)	.
2dd	.
[4aa-	.
=510	=510
(4aa-	.
4gg)	.
[4ee-	.
=511	=511
!LO:TX:t=decresc.	!
(4ee-	.
4dd)	.
[4aa-	.
=512	=512
(4aa-	.
4gg)	.
[4ee-	.
=513	=513
(4ee-	.
4dd)	.
[4ee-	.
=514	=514
(4ee-	.
4dd)	.
(8.GL	.
16c)	.
=515	=515
(2e-	.
4f)	sf
=516	=516
(2g	.
4a-)	sf
=517	=517
2b-	.
[4ee-	sf
=518	=518
(4ee-	.
4dd	.
4dd-)	.
=519	=519
2cc	.
[4ff	.
=520	=520
(4ff	.
4ee	.
4ee-)	.
=521	=521
2dd	.
[4aa-	.
=522	=522
!LO:TX:t=cresc.	!
(4aa-	<
4gg	.
4ff#	.
=523	=523
4ff	.
4ee	.
[4ee-)	sf
=524	=524
(8ee-L	.
8dd)	.
4cc	.
4b	.
=525	=525
4cc	.
4r	.
4r	.
=526	=526
2.r	.
=527	=527
(4g 4ee-	sf
4g) 4dd	.
4r	.
=528	=528
(4g 4ee-	sf
4g) 4dd	.
4r	.
=529	=529
2.r	.
=530	=530
2.r	.
=531	=531
(4.aa-	sf
8ffL	.
8dd	.
8b)	.
=532	=532
4cc	.
4r	.
=533:|!	=533:|!
4cc	.
4r	.
4r	.
=534!|:	=534!|:
*k[b-e-a-d-]	*
*A-:	*
!LO:TX:t=Trio	!
12cL	p
12c	.
12c	.
12e-L	.
12e-	.
12e-	.
12a-L	.
12a-	.
12a-	.
=535	=535
12ccL	.
12cc	.
12cc	.
12a-L	.
12a-	.
12a-	.
12e-L	.
12e-	.
12e-	.
=536	=536
12cL	.
12c	.
12c	.
12e-L	.
12e-	.
12e-	.
12a-L	.
12a-	.
12a-	.
=537	=537
12ccL	.
12cc	.
12cc	.
12a-L	.
12a-	.
12a-	.
12e-L	.
12e-	.
12e-	.
=538	=538
12d-L	.
12d-	.
12d-	.
12e-L	.
12e-	.
12e-	.
12b-L	.
12b-	.
12b-	.
=539	=539
12dd-L	.
12dd-	.
12dd-	.
12b-L	.
12b-	.
12b-	.
12e-L	.
12e-	.
12e-	.
=540	=540
12d-L	.
12d-	.
12d-	.
12dd-L	.
12dd-	.
12dd-	.
12b-L	.
12b-	.
12b-	.
=541	=541
12gL	.
12g	.
12g	.
12e-L	.
12e-	.
12e-	.
12d-L	.
12d-	.
12d-	.
=542	=542
12cL	.
12c	.
12c	.
12e-L	.
12e-	.
12e-	.
12a-L	.
12a-	.
12a-	.
=543	=543
12ccL	.
12cc	.
12cc	.
12ee-L	.
12ee-	.
12ee-	.
12aa-L	.
12aa-	.
12aa-	.
=544	=544
!LO:TX:t=cresc.	!
12dL	<
12d	.
12d	.
12fL	.
12f	.
12f	.
12a-L	.
12a-	.
12a-	.
=545	=545
12b-L	.
12b-	.
12b-	.
12ddL	.
12dd	.
12dd	.
12ffL	.
12ff	.
12ff	.
=546	=546
12bb-L	.
12bb-	.
12bb-	.
12dddL	.
12ddd	.
12ddd	.
12fffL	.
12fff	.
12fff	.
=547	=547
12fffL	.
12fff	.
12fff	.
12fffL	.
12fff	.
12fff	.
12fffL	.
12fff	.
12fff	.
=548	=548
2.fff	sfp
=549	=549
8r	.
(8aa-L	p
8gg	.
8ff	.
8ee-	.
8dd)	.
=550	=550
(4.ee-	.
8b-	.
4g)	.
=551	=551
(4.cc	.
8a-	.
4f)	.
=552	=552
(2e-	.
qqf	.
qqe-	.
qqd	.
qqe-	.
8gL	.
8f)	.
=553	=553
4e-	.
4r	.
4r	.
=554:|!	=554:|!
12GL	p
12G	.
12G	.
12B-L	.
12B-	.
12B-	.
12e-L	.
12e-	.
12e-	.
=555	=555
12gL	.
12g	.
12g	.
12e-L	.
12e-	.
12e-	.
12B-L	.
12B-	.
12B-	.
=556	=556
12GL	.
12G	.
12G	.
12B-L	.
12B-	.
12B-	.
12e-L	.
12e-	.
12e-	.
=557	=557
12gL	.
12g	.
12g	.
12e-L	.
12e-	.
12e-	.
12B-L	.
12B-	.
12B-	.
=558	=558
12A-L	.
12A-	.
12A-	.
12B-L	.
12B-	.
12B-	.
12fL	.
12f	.
12f	.
=559	=559
12a-L	.
12a-	.
12a-	.
12fL	.
12f	.
12f	.
12B-L	.
12B-	.
12B-	.
=560	=560
12A-L	.
12A-	.
12A-	.
12a-L	.
12a-	.
12a-	.
12fL	.
12f	.
12f	.
=561	=561
12dL	.
12d	.
12d	.
12B-L	.
12B-	.
12B-	.
12A-L	.
12A-	.
12A-	.
=562	=562
!LO:TX:t=cresc.	!
12GL	.
12G	.
12G	.
12B-L	.
12B-	.
12B-	.
12e-L	.
12e-	.
12e-	.
=563	=563
12gL	.
12g	.
12g	.
12b-L	.
12b-	.
12b-	.
12ee-L	.
12ee-	.
12ee-	.
=564	=564
12A-L	.
12A-	.
12A-	.
12cL	.
12c	.
12c	.
12e-L	.
12e-	.
12e-	.
=565	=565
12a-L	.
12a-	.
12a-	.
12ccL	.
12cc	.
12cc	.
12ee-L	.
12ee-	.
12ee-	.
=566	=566
12B-L	.
12B-	.
12B-	.
12e-L	.
12e-	.
12e-	.
12gL	.
12g	.
12g	.
=567	=567
12b-L	.
12b-	.
12b-	.
12ee-L	.
12ee-	.
12ee-	.
12ggL	.
12gg	.
12gg	.
=568	=568
12bb-L	.
12bb-	.
12bb-	.
12eee-L	.
12eee-	.
12eee-	.
12gggL	.
12ggg	.
12ggg	.
=569	=569
*8va	*
12bb-L	.
12bb-	.
12bb-	.
12ddd-L	.
12ddd-	.
12ddd-	.
12ddd-L	.
12ddd-	.
12ddd-	.
=570	=570
2.ddd-	sfp
*X8va	*
=571	=571
8r	.
(8ddd-L	p
8ccc	.
8bb-	.
8aa-	.
8gg)	.
=572	=572
(4.aa-	.
8ee-	.
4cc)	.
=573	=573
(4.ff	.
8dd-	.
4b-)	.
=574	=574
(2a-	.
qqb-	.
qqa-	.
qqg	.
qqa-	.
8ccL	.
8b-)	.
=575	=575
4a-	.
4r	.
4r	.
=576	=576
!LO:TX:t=decresc.	!
(2A-	.
qqB-	.
qqA-	.
qqG	.
qqA-	.
8cL	.
8B-)	.
=577	=577
4A-	.
4r	.
4r	.
=578	=578
4f	pp
4r	.
4r	.
=579	=579
4e-	.
4r	.
4r	.
=580	=580
4d	.
4r	.
4r	.
=581	=581
!LO:TX:t=Men. D.C.	!
4r	.
4r	.
=582!|:	=582!|:
*k[b-e-a-]	*
*c:	*
*M2/2	*
!LO:TX:a:B:t=Allegro	!
(8ee-L	p
8ff)	.
=583	=583
(8ggL	.
8ee-)	.
8ff	.
8dd	.
(8ee-L	.
8cc)	.
8dd	.
8b	.
=584	=584
qqdd	.
8ccL	.
8b	.
8cc	.
8dd	.
8ee-L	.
8ee	.
8ff	.
8ff#	.
=585	=585
!LO:TX:t=cresc.	!
4gg	<
4gg	.
4gg	.
4gg	.
=586	=586
2.gg	f
(8ee-	p
8ff)	.
=587	=587
(8ggL	.
8ee-)	.
8ff	.
8dd	.
(8ee-L	.
8cc)	.
8dd	.
8b	.
=588	=588
qqdd	.
8ccL	.
8b	.
8cc	.
8dd	.
8eeL	.
8ff#	.
8gg	.
8aa	.
=589	=589
4bb-	.
!LO:TX:t=cresc.	!
4c#	<
4d	.
4d	.
=590!|:	=590!|:
2.G	sf
=	=
(8ggL	p
8aa-)	.
=591	=591
4bb-	.
4ee	.
4ff	.
[4aa-	sf
=592	=592
4aa-	.
4dd	.
4ee-	.
[4gg	sf
=593	=593
(4gg	.
8ff	.
8ee-)	.
4dd	.
4cc	.
=594	=594
(4b	.
2dd)	.
(8ee-	p
8ff)	.
=595	=595
(8ggL	.
8ee-)	.
8ff	.
8dd	.
(8ee-L	.
8cc)	.
8dd	.
8b	.
=596	=596
!LO:TX:t=cresc.	!
qqdd	<
8ccL	.
8b	.
8cc	.
8dd	.
8ee-L	.
8ee	.
8ff	.
8gg	.
=597	=597
4aa-	.
4f#	f
4g	.
4G	.
=598!|:	=598!|:
2.c	.
=	=
4r	.
=599	=599
[1ee-	p
=600	=600
[1ee-	.
=601	=601
2ee-	.
[2aa-	.
=602	=602
(2aa-	.
2gg)	.
=603	=603
(2gg-	<
2ff	.
=604	=604
2ff-	>
[2ee-)	.
=605	=605
(4ee-	]
4dd-	.
4cc	.
4b-)	.
=606	=606
(2b-	.
4a-)	.
=:|!|:	=:|!|:
4r	.
=607	=607
1r	.
=608	=608
1r	.
=609	=609
1r	.
=610	=610
1r	.
=611	=611
(2b-	.
2ee-	.
=612	=612
2dd	.
2aa-)	.
=613	=613
!LO:TX:t=cresc.	!
(2gg	.
[2ddd-)	.
=614	=614
(4ddd-	.
4bb-	.
4gg	.
4dd-)	.
=615	=615
(4cc	p
4ee-)	.
4ee-	.
4ee-	.
=616	=616
[1ee-	.
=617	=617
2ee-	.
[2aa-	.
=618	=618
(2aa-	.
2gg)	.
=619	=619
(4ff	.
4aa	.
[2bb-)	.
=620	=620
(4bb-	.
4gg	.
4aa-	.
4ee)	.
=621	=621
(4ff	.
4b-	.
4dd-	.
4g)	.
=622	=622
(2b-	.
4a-)	.
=623:|!	=623:|!
4a-	.
4r	.
4r	.
(8ee-	p
8ff)	.
=624	=624
(8ggL	.
8ee-)	.
8ff	.
8dd	.
(8ee-L	.
8cc)	.
8dd	.
8b	.
=625	=625
qqdd	.
8ccL	.
8b	.
8cc	.
8dd	.
8ee-L	.
8ee	.
8ff	.
8ff#	.
=626	=626
!LO:TX:t=cresc.	!
4gg	.
4gg	.
4gg	.
4gg	.
=627	=627
2.gg	f
(8ee-	p
8ff)	.
=628	=628
(8ggL	.
8ee-)	.
8ff	.
8dd	.
(8ee-L	.
8cc)	.
8dd	.
8b	.
=629	=629
qqdd	.
8ccL	.
8b	.
8cc	.
8dd	.
8eeL	.
8ff#	.
8gg	.
8aa	.
=630	=630
4bb-	.
!LO:TX:t=cresc.	!
4c#	.
4d	.
4d	.
=631	=631
2.G	sf
(8ee-	p
8ff)	.
=632	=632
(8ggL	.
8ee-)	.
8ff	.
8dd	.
!LO:TX:t=cresc.	!
(8ee-L	<
8cc)	.
8dd	.
8b	.
=633	=633
8ccL	.
8c	.
8e-	.
8g	.
8ccL	.
8dd	.
8ee-	.
8ff	.
=634	=634
8ggL	f
8ff#	.
8gg	.
8ff#	.
8ggL	.
8ff#	.
8gg	.
8ff#	.
=635	=635
8ggL	.
8g	.
8a	.
8b	.
8ccL	.
8dd	.
8ee-	.
8ff	.
=636	=636
(8ggL	p
8ee-)	.
8ff	.
8dd	.
!LO:TX:t=cresc.	!
(8ee-L	<
8cc)	.
8dd	.
8b	.
=637	=637
qqdd	.
8ccL	.
8b	.
8cc	.
8dd	.
8eeL	.
8ff#	.
8gg	.
8aa	.
=638	=638
8bb-L	f
8gg	.
8bb-	.
8gg	.
8aaL	.
8gg	.
8aa	.
8ff#	.
=639	=639
4gg	.
4r	.
4r	.
(8gg	p
8aa-	.
=640	=640
4bb-)	.
4ee	.
4ff	.
[4aa-	sf
=641	=641
4aa-	.
4dd	.
4ee-	.
[4gg	sf
=642	=642
4gg	.
8ff	.
8ee-	.
4dd	.
4cc	.
=643	=643
(4b	.
2dd)	.
(8ee-	p
8ff)	.
=644	=644
(8ggL	.
8ee-)	.
8ff	.
8dd	.
(8ee-L	.
8cc)	.
8dd	.
8b	.
=645	=645
!LO:TX:t=cresc.	!
qqdd	<
8ccL	.
8b	.
8cc	.
8dd	.
8ee-L	.
8ee	.
8ff	.
8gg	.
=646	=646
4aa-	[
4f#	f
4g	.
4g	.
=647	=647
2.cc	.
(8gg	.
8aa-)	.
=648	=648
(8bb-L	sf
8gg)	.
8ff	.
8ee	.
qqgg	.
8ffL	.
8ee	.
8ff	.
8gg	.
=649	=649
(8aa-L	sf
8ff)	.
8ee-	.
8dd	.
qqff	.
8ee-L	.
8dd	.
8ee-	.
8gg	.
=650	=650
(8ffL	ff
8gg)	.
8ee-	.
8ff	.
(8ddL	.
8ee-)	.
8cc	.
8dd	.
=651	=651
8bL	.
8g	.
8a	.
8b	.
8ccL	.
8dd	.
8ee-	.
8ff	.
=652	=652
(8ggL	p
8ee-)	.
8ff	.
8dd	.
!LO:TX:t=cresc.	!
(8ee-L	<
8cc)	.
8dd	.
8b	.
=653	=653
qqdd	.
8ccL	.
8b	.
8cc	.
8dd	.
8ee-L	.
8ee	.
8ff	.
8gg	.
=654	=654
8aa-L	f
8ff	.
8aa-	.
8ff	.
8ee-L	.
8gg	.
8b	.
8dd	.
=655	=655
4cc	.
4r	.
4r	.
8r	.
=!|:	=!|:
*k[]	*
*C:	*
8r	.
=656	=656
1r	.
=657	=657
4r	.
8r	.
(32cc	f
32dd	.
32ee	.
32ff)	.
2gg	p
=658	=658
(8aaL	.
8ff#)	.
8gg	.
8gg	.
(8ffL	.
8dd#)	.
8ee	.
8ee	.
=659	=659
(8ddL	.
8b)	.
8cc	.
8cc	.
(8bL	.
8g#)	.
8a	.
8g#	.
=660	=660
(8ddL	.
8b)	.
8g	.
8g	.
(8ccL	.
8a)	.
8f#	.
8f#	.
=661	=661
8gL	.
8d	.
8B	.
8d	.
4G	.
8r	.
=:|!|:	=:|!|:
8r	.
=662	=662
1r	.
=663	=663
8bL	.
8g	.
8cc	.
8g	.
(8ddL	.
8b)	.
8g	.
8g	.
=664	=664
1r	.
=665	=665
8ddL	f
8g	p
8ee	.
8g	.
8ffL	.
8g	.
8gg	.
8f	.
=666	=666
(8aaL	.
8ff#)	.
8gg	.
8gg	.
(8ffL	.
8dd#)	.
8ee	.
8ee	.
=667	=667
(8ddL	.
8b)	.
8cc	.
8cc	.
(8bL	.
8g#)	.
8a	.
8a	.
=668	=668
(8gL	.
8e)	.
8c	.
8c	.
(8fL	.
8d)	.
8B	.
8B	.
=669	=669
8cL	.
8G	.
8c	.
8G	.
4c	.
8r	.
=670:|!	=670:|!
8cL	.
8G	.
8c	.
8G	.
4c	.
4r	.
=671!|:	=671!|:
*k[b-e-a-]	*
*c:	*
2r	.
(8ggL	p
8ee-)	.
8ff	.
8dd	.
=672	=672
qqdd	.
8ccL	.
8b	.
8cc	.
8dd	.
8ee-L	.
8ee	.
8ff	.
8ff#	.
=673	=673
!LO:TX:t=cresc.	!
4gg	<
4gg	.
4gg	.
4gg	.
=674	=674
2.gg	sf
4r	.
=675	=675
2r	.
(8ggL	p
8ee-)	.
8ff	.
8dd	.
=676	=676
qqdd	.
8ccL	.
!LO:TX:t=cresc.	!
8b	<
8cc	.
8dd	.
8eeL	.
8ff#	.
8gg	.
8aa	.
=677	=677
4bb-	[
4c#	.
4d	.
4d	.
=678	=678
4G	.
4r	.
2r	.
=679:|!	=679:|!
4G	.
4r	.
2r	.
=680	=680
4r	.
(4bb-	p
4aa-	.
4ff)	.
=681	=681
4r	.
(4aa-	.
4gg	.
4ee-)	.
=682	=682
(4cc	.
8dd	.
8ee-)	.
4ff	.
4ff#	.
=683	=683
2.gg	.
4r	.
=684	=684
2r	.
(8ggL	p
8ee-)	.
8ff	.
8dd	.
=685	=685
qqdd	.
8ccL	.
!LO:TX:t=cresc.	!
8b	<
8cc	.
8dd	.
8ee-L	.
8ee	.
8ff	.
8gg	.
=686	=686
4aa-	.
4f#	f
4g	.
4g	.
=687	=687
4c	.
4r	.
4r	.
(8gg	p
8aa-)	.
=688	=688
4bb-	.
(4ee	.
4ff	.
[4aa-)	.
=689	=689
4aa-	.
(4dd	.
4ee-	.
[4gg)	.
=690	=690
(4gg	.
8ff	.
8ee-)	.
4dd	.
4cc	.
=691	=691
!LO:TX:t=cresc.	!
(4b	<
2dd)	.
8ee-	.
8ff	.
=692	=692
(8ggL	f
8ee-)	.
8ff	.
8dd	.
(8ee-L	.
8cc)	.
8dd	.
8b	.
=693	=693
qqdd	.
8ccL	.
8b	.
8cc	.
8dd	.
8ee-L	.
8ee	.
8ff	.
8gg	.
=694	=694
4aa-	.
4f#	.
4g	.
4g	.
=695	=695
4c	.
4r	.
!LO:TX:t=cresc.	!
8GL	<
8e-	.
8cc	.
8e-	.
=696	=696
8GL	.
8d	.
8b	.
8d	.
8GL	.
8f	.
8dd	.
8f	.
=697	=697
8GL	.
8e-	.
8cc	.
8e-	.
8cL	.
8g	.
8ee-	.
8g	.
=698	=698
8BL	.
8g	.
8dd	.
8g	.
8cL	.
8g	.
8ee-	.
8g	.
=699	=699
(12GL	.
12d	.
12b	.
12ff	.
12b	.
12d)	.
(12GL	.
12d	.
12b	.
12ff	.
12b	.
12d)	.
=700	=700
(12GL	.
12d	.
12b	.
12ff	.
12b	.
12d)	.
(12GL	.
12d	.
12b	.
12ff	.
12b	.
12d)	.
=701	=701
2.G 2.d 2.b 2.ff	ff
4r	.
=702	=702
[1gg	p
=703	=703
[1gg	.
=704	=704
2gg	.
[2ccc	.
=705	=705
(2ccc	.
2bb)	.
=706	=706
(1aa	.
=707	=707
[1gg)	.
=708	=708
(4gg	.
4ff	.
4ee	.
4dd)	.
=709	=709
(qqff	.
8eeL	.
8dd	.
8ee	.
8ff)	.
4gg	.
4gg	.
=710	=710
2gg	.
[2ccc	.
=711	=711
(4ccc	.
4bb	.
4aa	.
4bb)	.
=712	=712
(4ccc	.
4ddd	.
4eee	.
4fff#)	.
=713	=713
[1ggg	.
=714	=714
(2ggg	.
[2fff)	.
=715	=715
(2fff	.
[2eee)	.
=716	=716
(4eee	.
4ddd	.
4ccc	.
4ddd)	.
=717	=717
(qqfff	.
8eeeL	.
8ddd	.
8eee	.
8fff)	.
4ggg	.
4ggg	.
=718	=718
(2ggg	.
[2fff)	.
=719	=719
2fff	.
2eee	.
=720	=720
!LO:TX:t=cresc.	!
(8eeeL	.
8ddd	.
8ccc#	.
8ddd	.
8ccc#L	.
8ddd	.
8fff	.
8ddd)	.
=721	=721
(2ccc	.
4bb)	.
(8ee	.
8ff)	.
=722	=722
(8ggL	pp
8ee)	.
8ff	.
8dd	.
(8eeL	.
8cc)	.
8dd	.
8b	.
=723	=723
4cc	.
4r	.
4r	.
4cc	.
=724	=724
(8bL	.
8cc	.
8b	.
8cc	.
8ddL	.
8ee	.
8dd	.
8ee)	.
=725	=725
4ff	.
4r	.
4r	.
(8ee-	.
8ff)	.
=726	=726
(8ggL	.
8ee-)	.
8ff	.
8dd	.
(8ee-L	.
8cc)	.
8dd	.
8b	.
=727	=727
4cc	.
4r	.
4r	.
4cc	.
=728	=728
(8ddL	.
8ee-	.
8dd	.
8ee-	.
8ffL	.
8gg	.
8ff	.
8gg)	.
=729	=729
4aa-	.
4r	.
4r	.
(8gg	.
8aa-)	.
=730	=730
(8bb-L	.
8gg)	.
8aa-	.
8ff	.
(8ggL	.
8ee-)	.
8ff	.
8dd	.
=731	=731
4ee-	.
4r	.
4r	.
4ee-	.
=732	=732
(8eeL	.
8ff	.
8ee	.
8ff	.
8ggL	.
8aa-	.
8gg	.
8aa-)	.
=733	=733
4bb-	.
4r	.
4r	.
4ee	.
=734	=734
!LO:TX:t=cresc.	!
(8ffL	<
8gg	.
8ff	.
8gg	.
8aa-L	.
8bb-	.
8aa-	.
8bb-)	.
=735	=735
4ccc	.
4r	.
4r	.
4ccc	.
=736	=736
2.ccc	.
4ddd	.
=737	=737
2eee-	.
2f#	.
=738	=738
(8GL	f
8g	.
8b	.
8dd)	.
(8ffL	.
8aa-)	.
8ff	.
8dd	.
=739	=739
8ffL	.
8ee-	.
8dd	.
8cc	.
8bL	.
8cc	.
8a-	.
8f#	.
=740	=740
(8GL	f
8g	.
8b	.
8dd)	.
(8ffL	.
8aa-)	.
8ff	.
8dd	.
=741	=741
8ffL	.
8ee-	.
8dd	.
8cc	.
8bL	.
8cc	.
8a-	.
8f#	.
=742	=742
(8GL	f
8g	.
8b	.
8dd)	.
(8ffL	.
8dd)	.
8b	.
8dd	.
=743	=743
(8ffL	.
8dd)	.
8b	.
8dd	.
(8ffL	.
8dd)	.
8b	.
8dd	.
=744	=744
8GL	f
8b	.
8dd	.
8ff	.
(8aa-L	.
8ff)	.
8dd	.
8ff	.
=745	=745
(8aa-L	.
8ff)	.
8dd	.
8ff	.
(8aa-L	.
8ff)	.
8dd	.
8ff	.
=746	=746
!LO:TX:t=decresc.	!
1aa-	.
=747	=747
1ff#	p
=748	=748
!LO:TX:a:B:t=Prestissimo	!
8ggL	ff
8ee-	.
8ff	.
8dd	.
8ee-L	.
8cc	.
8dd	.
8b	.
=749	=749
qqdd	.
8ccL	.
8b	.
8cc	.
8dd	.
8ee-L	.
8ee	.
8ff	.
8ff#	.
=750	=750
4gg	.
4gg	.
4gg	.
4gg	.
=751	=751
2.gg	.
(8ee-	.
8ff)	.
=752	=752
(8ggL	.
8ee-)	.
8ff	.
8dd	.
(8ee-L	.
8cc)	.
8dd	.
8b	.
=753	=753
qqdd	.
8ccL	.
8b	.
8cc	.
8dd	.
8eeL	.
8ff#	.
8gg	.
8aa	.
=754	=754
4bb-	.
4c#	.
4d	.
4d	.
=755	=755
2.G	.
(8gg	.
8aa-	.
=756	=756
4bb-)	.
4ee	.
4ff	.
[4aa-	sf
=757	=757
4aa-	.
4dd	.
4ee-	.
[4gg	sf
=758	=758
(4gg	.
8ff	.
8ee-)	.
4dd	.
4cc	.
=759	=759
(4b	.
2dd)	.
(8ee-	ff
8ff)	.
=760	=760
(8ggL	.
8ee-)	.
8ff	.
8dd	.
(8ee-L	.
8cc)	.
8dd	.
8b	.
=761	=761
qqdd	.
8ccL	.
8b	.
8cc	.
8dd	.
8ee-L	.
8ee	.
8ff	.
8gg	.
=762	=762
4aa-	.
4f#	.
4g	.
4g	.
=763	=763
4c	.
(8cc	p
8dd)	.
(8ee-L	.
8cc)	.
8dd	.
8b	.
=764	=764
4cc	.
(8ee-	.
8ff)	.
(8ggL	.
8ee-)	.
8ff	.
8dd	.
=765	=765
4ee-	.
8ccc	.
8ddd	.
8eee-L	.
8ggg	.
!LO:TX:t=cresc.	!
8eee-	<
8ggg	.
=766	=766
8eee-L	.
8ggg	.
8ddd	.
8ggg	.
8eee-L	.
8ggg	.
8ddd	.
8ggg	.
=767	=767
2eee-	.
2eee	.
=768	=768
2fff	.
2aaa-	.
=769	=769
1ggg	f
=770	=770
1gg	.
=771	=771
2ee-	p
!LO:TX:t=cresc.	!
2ee	<
=772	=772
2ff	.
2gg	.
=773	=773
1aa-	f
=774	=774
1f#	f
=775	=775
1g	f
=776	=776
1G	f
=777	=777
4c	.
2ee-	sf
4cc	.
=778	=778
4b	.
2ff	sf
4dd	.
=779	=779
4cc	.
2gg	sf
4ee-	.
=780	=780
4dd	.
4aa-	.
4cc	.
4b	.
=781	=781
4cc	.
(8c	.
8e-	.
8gL	.
8cc	.
8ee-	.
8cc)	.
=782	=782
4b	.
(8d	.
8f	.
8bL	.
8dd	.
8ff	.
8dd)	.
=783	=783
8ccL	.
(8e-	.
8g	.
8cc	.
8ee-L	.
8gg	.
8ccc	.
8eee-)	.
=784	=784
!LO:TX:t=decresc.	!
4ggg	.
4fff	.
4eee-	.
4ddd	.
=785	=785
4ccc	.
4bb-	.
4aa-	.
4gg	.
=786	=786
4ff	.
4ee-	.
4dd	.
4aa-	.
=787	=787
4cc	pp
4r	.
2r	.
=788	=788
4b	.
4r	.
2r	.
=789	=789
2r	.
4r	.
4ccc	p
=790	=790
4ccc	.
4ccc	.
4ccc	.
4ccc	.
=791	=791
2.ccc	sf
4ccc	.
=792	=792
4ccc	.
4ccc	.
4ccc	.
4ccc	.
=793	=793
2ccc	sf
4ccc	p
4ccc	.
=794	=794
2r	.
4eee	.
4eee	.
=795	=795
2r	.
4ggg	.
4ggg	.
=796	=796
4cccc	pp
4cccc	.
4cccc	.
4cccc	.
=797	=797
4cccc	.
4r	.
4r	.
8r	.
(24gg	.
24aa	.
24bb	.
=798	=798
4ccc)	.
4r	.
4r	.
8r	.
(24g	.
24a	.
24b)	.
=799	=799
4cc	.
4r	.
4r	.
8r	ff
(24G	.
24A	.
24B	.
=800	=800
4c)	.
8r	.
(24G	.
24A	.
24B	.
4c)	.
8r	.
(24G	.
24A	.
24B	.
=801	=801
4c)	.
4r	.
2r	.
=802	=802
2r	.
4r	.
==	==
*-	*-
